icons/1_Primary/MEXC.svg

<svg width="1024" height="1024" viewBox="0 0 1024 1024" fill="none" xmlns="http://www.w3.org/2000/svg">
<g clip-path="url(#clip0_2_2802)">
<path d="M512 1024C794.77 1024 1024 794.77 1024 512C1024 229.23 794.77 0 512 0C229.23 0 0 229.23 0 512C0 794.77 229.23 1024 512 1024Z" fill="#96DFD3"/>
<path d="M511.83 409.77L662.14 669.91H291.49C279.361 669.866 267.454 666.647 256.954 660.576C246.453 654.504 237.725 645.79 231.636 635.299C225.547 624.809 222.31 612.908 222.245 600.778C222.181 588.649 225.292 576.714 231.27 566.16L354.55 352.54C359.778 341.577 367.948 332.281 378.15 325.69C410.29 304.53 453.42 313.08 474.58 345.22L484.63 362.67L491.63 374.87L511.77 409.82L511.83 409.77ZM792.76 565.34L667.44 348.07C639.77 302.91 573.04 302.07 546.6 350.07L524.77 387.53L687.91 669.91H733.36C783 669.91 820 616.2 792.76 565.34Z" fill="white"/>
</g>
<defs>
<clipPath id="clip0_2_2802">
<rect width="1024" height="1024" fill="white"/>
</clipPath>
</defs>
</svg>

<svg xmlns="http://www.w3.org/2000/svg" viewBox="0 0 1024 1024">
   <circle cx="512" cy="512" r="512" style="fill:#00b897"/>
   <path d="m511.83 409.77 150.31 260.14H291.49a69.5 69.5 0 0 1-60.22-103.75l123.28-213.62a65.57 65.57 0 0 1 23.6-26.85c32.14-21.16 75.27-12.61 96.43 19.53l10.05 17.45 7 12.2 20.14 34.95Zm280.93 155.57L667.44 348.07c-27.67-45.16-94.4-46-120.84 2l-21.83 37.46 163.14 282.38h45.45c49.64 0 86.64-53.71 59.4-104.57Z" style="fill:#fff"/>
</svg>
